packages/ffe-icons/icons/filled/md/more_vert.svg

<svg xmlns="http://www.w3.org/2000/svg" height="24" viewBox="0 -960 960 960" width="24"><path d="M480-189.233q-24.749 0-42.374-17.624-17.625-17.625-17.625-42.374 0-24.75 17.625-42.374Q455.251-309.23 480-309.23q24.749 0 42.374 17.625 17.625 17.624 17.625 42.374 0 24.749-17.625 42.374-17.625 17.624-42.374 17.624Zm0-230.768q-24.749 0-42.374-17.625-17.625-17.625-17.625-42.374 0-24.749 17.625-42.374 17.625-17.625 42.374-17.625 24.749 0 42.374 17.625 17.625 17.625 17.625 42.374 0 24.749-17.625 42.374-17.625 17.625-42.374 17.625Zm0-230.769q-24.749 0-42.374-17.625-17.625-17.624-17.625-42.374 0-24.749 17.625-42.374 17.625-17.624 42.374-17.624 24.749 0 42.374 17.624 17.625 17.625 17.625 42.374 0 24.75-17.625 42.374Q504.749-650.77 480-650.77Z"/></svg>

<svg xmlns="http://www.w3.org/2000/svg" height="24" viewBox="0 -960 960 960" width="24"><path d="M480-189.23q-24.75 0-42.37-17.63Q420-224.48 420-249.23q0-24.75 17.63-42.38 17.62-17.62 42.37-17.62 24.75 0 42.37 17.62Q540-273.98 540-249.23q0 24.75-17.63 42.37-17.62 17.63-42.37 17.63ZM480-420q-24.75 0-42.37-17.63Q420-455.25 420-480q0-24.75 17.63-42.37Q455.25-540 480-540q24.75 0 42.37 17.63Q540-504.75 540-480q0 24.75-17.63 42.37Q504.75-420 480-420Zm0-230.77q-24.75 0-42.37-17.62Q420-686.02 420-710.77q0-24.75 17.63-42.37 17.62-17.63 42.37-17.63 24.75 0 42.37 17.63Q540-735.52 540-710.77q0 24.75-17.63 42.38-17.62 17.62-42.37 17.62Z"/></svg>
